svg/l/ER.svg

<svg width="33" height="24" viewBox="0 0 33 24" fill="none" xmlns="http://www.w3.org/2000/svg">
<mask id="mask0" mask-type="alpha" maskUnits="userSpaceOnUse" x="0" y="0" width="34" height="24">
<rect width="34" height="24" fill="white"/>
</mask>
<g mask="url(#mask0)">
<path fill-rule="evenodd" clip-rule="evenodd" d="M0 0V12H32V0H0Z" fill="#43B764"/>
<path fill-rule="evenodd" clip-rule="evenodd" d="M0 12V24H32V12H0Z" fill="#B4D7F4"/>
<path fill-rule="evenodd" clip-rule="evenodd" d="M0 0L33 12L0 24V0Z" fill="#BE0027"/>
<path fill-rule="evenodd" clip-rule="evenodd" d="M8.1007 18.5159C8.22621 18.3893 8.38601 18.2757 8.58704 18.2073C8.5988 17.5704 8.59128 16.8755 8.55219 16.2152C8.49945 16.136 8.40751 16.0699 8.24754 16.0699C7.84772 16.0699 6.96953 15.7282 6.96953 15.2362C6.96953 15.2362 7.62458 15.5322 7.80741 15.3842C7.88529 15.3212 7.6822 15.1257 7.43672 14.8895C7.10598 14.5713 6.6983 14.179 6.79721 13.9368C6.79721 13.9368 7.43948 14.5054 7.57659 14.5054C7.63919 14.5054 7.59652 14.3211 7.55362 14.1359C7.50255 13.9153 7.45115 13.6933 7.57659 13.7791C7.80741 13.9368 8.4485 15.0247 8.4485 15.3842C8.4485 15.5798 8.49992 15.8876 8.54681 16.1277L8.54637 16.1208C8.51979 15.7066 8.48149 15.3346 8.43051 15.0161C8.14236 13.2163 8.13207 11.3715 8.5329 10.3896C8.33313 10.2659 8.18739 10.108 8.18739 9.92775C8.18739 9.92775 8.84245 10.1939 9.02527 10.0608C9.10316 10.0041 8.90006 9.82836 8.65458 9.61588C8.32385 9.32962 7.91617 8.97677 8.01508 8.75883C8.01508 8.75883 8.65735 9.27032 8.79446 9.27032C8.85706 9.27032 8.81439 9.10457 8.77149 8.93791C8.72042 8.73953 8.66902 8.53986 8.79446 8.61696C9.02527 8.75883 9.66636 9.73743 9.66636 10.0608L9.6664 10.0685C9.91476 9.76065 10.2043 9.47338 10.3566 9.40141C10.5197 9.32431 10.4528 9.52399 10.3864 9.72237C10.3306 9.88903 10.2752 10.0548 10.3566 10.0548C10.5349 10.0548 11.3701 9.54328 11.3701 9.54328C11.4987 9.76122 10.9685 10.1141 10.5385 10.4003C10.2192 10.6128 9.95513 10.7886 10.0564 10.8453C10.2942 10.9784 11.146 10.7122 11.146 10.7122C11.146 11.1547 10.004 11.4621 9.48406 11.4621C9.29074 11.4621 9.17383 11.5134 9.10322 11.5779C9.06865 11.8845 9.05276 12.2318 9.05457 12.6039C9.31444 12.2693 9.63895 11.9405 9.80336 11.8628C9.96648 11.7857 9.89964 11.9853 9.83323 12.1837C9.77745 12.3504 9.72196 12.5161 9.80336 12.5161C9.98166 12.5161 10.8169 12.0046 10.8169 12.0046C10.9455 12.2226 10.4153 12.5754 9.98526 12.8617C9.66604 13.0742 9.40193 13.25 9.50321 13.3067C9.74096 13.4398 10.5928 13.1736 10.5928 13.1736C10.5928 13.567 9.6902 13.8536 9.12455 13.9124C9.15613 14.2356 9.19814 14.5634 9.25009 14.8879C9.30556 15.2343 9.3464 15.6309 9.37449 16.0688C9.38655 16.2568 9.39607 16.4474 9.40331 16.6387C9.42822 16.4796 9.44671 16.3219 9.44671 16.2047C9.44671 15.8451 10.0878 14.7572 10.3186 14.5995C10.444 14.5138 10.3926 14.7358 10.3416 14.9563C10.2987 15.1416 10.256 15.3258 10.3186 15.3258C10.4557 15.3258 11.098 14.7572 11.098 14.7572C11.1969 14.9995 10.7892 15.3918 10.4585 15.71C10.213 15.9462 10.0099 16.1416 10.0878 16.2047C10.2706 16.3526 10.9257 16.0567 10.9257 16.0567C10.9257 16.5486 10.0475 16.8904 9.64766 16.8904C9.54326 16.8904 9.46784 16.9185 9.41338 16.9601C9.42392 17.3822 9.42418 17.8029 9.41705 18.2024C9.63508 18.2735 9.80537 18.3976 9.93652 18.5349C10.1933 18.5172 10.446 18.4783 10.6947 18.4181C11.1749 18.1538 12.2378 17.303 12.5069 16.9684C12.7107 16.715 12.7886 16.2161 12.8621 15.7446L12.8621 15.7446C12.9042 15.4748 12.9449 15.2141 13.007 15.0134C13.1776 14.462 13.4795 15.6835 13.4795 15.8737C13.4795 16.0639 13.7281 15.1683 13.7281 14.5401C13.7281 14.2254 13.6657 14.0233 13.6034 13.8217C13.5414 13.6209 13.4795 13.4204 13.4795 13.1094C13.4795 12.7418 13.6944 12.807 13.8934 12.9975C13.8024 12.748 13.7281 12.4392 13.7281 12.1208C13.7281 11.7132 13.6769 11.5909 13.6547 11.5605C13.6748 11.5695 13.728 11.5745 13.8401 11.5136C14.0326 11.4091 14.1222 11.5374 14.1972 11.6448C14.2627 11.7387 14.3171 11.8166 14.4193 11.7095C14.5311 11.5924 14.2898 11.4593 13.9314 11.2615C13.5872 11.0716 13.1351 10.8221 12.7838 10.47C12.0666 9.75111 13.007 9.50438 13.1674 9.75504C13.3278 10.0057 14.2836 10.2875 13.7281 9.45314C13.3904 8.94596 12.9741 8.95226 12.5954 8.95799C12.3511 8.96169 12.1224 8.96515 11.9405 8.83033C11.6265 8.59753 12.0639 8.35693 12.3022 8.22585C12.4158 8.16338 12.4841 8.12579 12.4043 8.12579C12.3026 8.12579 12.1729 8.08968 12.0202 8.04714C11.8014 7.98619 11.5352 7.91205 11.2361 7.91205C10.7281 7.91205 9.72427 7.45755 10.0715 7.45755C10.195 7.45755 10.378 7.4137 10.5791 7.36554C10.8 7.31263 11.0426 7.25451 11.2518 7.24362C10.6424 6.96185 9.94522 6.72427 9.15947 6.53075L9.29318 6C10.07 6.19131 10.7689 6.42638 11.3894 6.70512C11.2824 6.5406 11.1667 6.36201 11.0705 6.19408C10.7381 5.6141 11.7756 6.5148 12.1864 7.11112L12.1875 7.11277C12.8557 7.50053 13.4071 7.95298 13.8401 8.46994V7.29623C14.2281 7.42911 14.4489 8.68254 14.565 9.62688C14.6496 9.81664 14.7225 10.0127 14.7837 10.2151C14.9347 9.81202 15.2197 9.38479 15.4761 9.75504C15.7813 10.1958 15.2422 12.696 15.0436 13.56C15.0349 13.6507 15.025 13.7406 15.0137 13.83C15.4866 13.5289 15.7318 12.8338 15.8575 12.4775C15.9659 12.1702 15.9853 12.115 15.9853 12.7826C15.9853 13.646 15.3133 14.501 14.7626 15.0566C14.6837 15.3297 14.5903 15.5958 14.4824 15.8547C14.8617 15.735 15.1869 15.5246 15.4387 15.3617C15.8799 15.0762 16.0963 14.9362 15.9853 15.6835C15.8644 16.4984 14.6821 16.7993 13.939 16.9083C13.885 16.9949 13.8291 17.0805 13.7713 17.1652L13.7399 17.2034C13.6248 17.3199 13.5085 17.431 13.391 17.5368C13.466 17.5049 13.5381 17.4721 13.6087 17.4401C13.8988 17.3084 14.163 17.1884 14.4973 17.1884C14.6991 17.1884 14.4232 17.2938 14.0326 17.4429L14.0326 17.4429L14.0326 17.443L14.0326 17.443C13.571 17.6192 12.9494 17.8567 12.7671 18.0536C12.6908 18.136 12.6407 18.2027 12.6002 18.2566C12.4811 18.4151 12.4453 18.4628 12.0714 18.4729C11.4947 18.7794 10.8938 18.9727 10.2695 19.0518C10.3089 19.1456 10.3254 19.2074 10.3254 19.2074H7.69335C7.69335 19.2074 7.71362 19.1316 7.76286 19.0204C7.21554 18.9274 6.68658 18.7453 6.17655 18.4747C6.16322 18.475 6.14939 18.4752 6.13505 18.4752C5.56406 18.4752 5.53792 18.4404 5.3998 18.2566L5.39979 18.2566L5.39977 18.2565C5.35928 18.2027 5.30916 18.1359 5.23287 18.0536C5.05057 17.8567 4.42892 17.6192 3.96737 17.4429L3.96735 17.4429C3.57682 17.2938 3.3009 17.1884 3.50272 17.1884C3.83704 17.1884 4.10124 17.3084 4.39127 17.4401C4.48324 17.4818 4.57782 17.5248 4.67804 17.5654C4.77262 17.6038 4.89941 17.65 5.03892 17.6983C4.85808 17.5458 4.67999 17.3808 4.50467 17.2034L4.47321 17.1652C4.42255 17.091 4.37336 17.016 4.32564 16.9403C3.63756 16.8653 2.1645 16.5982 2.02872 15.6835C1.91779 14.9362 2.13416 15.0762 2.57533 15.3617C2.84106 15.5336 3.18834 15.7583 3.59478 15.8737C3.66873 15.8947 3.73425 15.9119 3.79216 15.9258C3.71394 15.7435 3.64297 15.5576 3.57926 15.3682C3.01778 14.865 2.02872 13.83 2.02872 12.7826C2.02872 12.115 2.04817 12.1702 2.15658 12.4775C2.28567 12.8435 2.54091 13.5671 3.03964 13.8538C3.03964 13.8538 2.16779 10.2896 2.53796 9.75504C2.90813 9.2205 3.33801 10.3482 3.33801 10.6657C3.33801 10.7212 3.3434 10.6614 3.35581 10.5237L3.35581 10.5237L3.35581 10.5237L3.35581 10.5237C3.41444 9.87292 3.62981 7.48259 4.1739 7.29623V8.58826C4.1739 8.6485 4.20078 8.67198 4.24793 8.66631C4.6098 8.18836 5.06684 7.76227 5.61813 7.38815C5.69997 7.28693 5.77158 7.19255 5.82767 7.11112C6.23844 6.5148 7.27593 5.6141 6.94356 6.19408C6.84413 6.36757 6.72393 6.55246 6.61406 6.72145L6.61406 6.72146L6.61398 6.72159C6.58247 6.77005 6.55182 6.8172 6.52275 6.8624C7.22263 6.5138 8.03258 6.22629 8.95137 6L9.08508 6.53075C8.2809 6.72881 7.56952 6.97303 6.94998 7.26352C7.10941 7.28755 7.27769 7.32786 7.43497 7.36554L7.43497 7.36554C7.63602 7.4137 7.81906 7.45755 7.94259 7.45755C8.28978 7.45755 7.28592 7.91205 6.77798 7.91205C6.47881 7.91205 6.21262 7.98619 5.99381 8.04714C5.84111 8.08968 5.71147 8.12579 5.60979 8.12579C5.52994 8.12579 5.59829 8.16338 5.71187 8.22585C5.95017 8.35693 6.3876 8.59753 6.07355 8.83033C5.89168 8.96515 5.66299 8.96169 5.41865 8.95799C5.14811 8.9539 4.85839 8.94952 4.59185 9.13225C4.41227 9.38956 4.26256 9.66226 4.14252 9.95038C4.26374 10.1092 4.73792 9.92494 4.84663 9.75504C5.00703 9.50438 5.9475 9.75111 5.23026 10.47C4.87895 10.8221 4.42682 11.0716 4.08268 11.2615C3.97055 11.3233 3.86988 11.3789 3.7879 11.4296C3.77627 11.528 3.76599 11.6258 3.75705 11.7228C3.77711 11.7018 3.79645 11.6741 3.81688 11.6448C3.89187 11.5374 3.98141 11.4091 4.1739 11.5136C4.286 11.5745 4.33924 11.5695 4.35938 11.5605C4.33717 11.5909 4.28599 11.7132 4.28599 12.1208C4.28599 12.4392 4.21163 12.748 4.1206 12.9975C4.31969 12.807 4.53452 12.7418 4.53452 13.1094C4.53452 13.4204 4.47263 13.6209 4.41062 13.8217C4.34836 14.0233 4.28599 14.2254 4.28599 14.5401C4.28599 15.1683 4.53452 16.0639 4.53452 15.8737C4.53452 15.6835 4.83642 14.462 5.00703 15.0134C5.06912 15.2141 5.10981 15.4748 5.1519 15.7446C5.22547 16.2161 5.30333 16.715 5.50718 16.9684C5.74063 17.2587 6.57147 17.9375 7.10102 18.2847C7.42716 18.3999 7.76032 18.4769 8.1007 18.5159ZM4.36942 11.5521C4.36895 11.5509 4.36514 11.5526 4.35938 11.5605C4.367 11.5571 4.36988 11.5532 4.36942 11.5521ZM13.6547 11.5605C13.6489 11.5526 13.6451 11.5509 13.6446 11.5521C13.6442 11.5532 13.647 11.5571 13.6547 11.5605ZM13.8339 15.9533C13.8563 15.9064 13.8781 15.8592 13.8994 15.8117C13.8436 15.866 13.8017 15.9236 13.8339 15.9533ZM9.21664 10.9494C9.20251 11.084 9.16567 11.2489 9.1261 11.3996C9.15008 11.2343 9.1802 11.0833 9.21664 10.9494Z" fill="#F3E294"/>
</g>
</svg>

<svg width="33" height="24" fill="none" xmlns="http://www.w3.org/2000/svg">
  <mask id="a" maskUnits="userSpaceOnUse" x="0" y="0" width="34" height="24">
    <path fill="#fff" d="M0 0h34v24H0z"/>
  </mask>
  <g mask="url(#a)" fill-rule="evenodd" clip-rule="evenodd">
    <path d="M0 0v12h32V0H0z" fill="#43B764"/>
    <path d="M0 12v12h32V12H0z" fill="#B4D7F4"/>
    <path d="M0 0l33 12L0 24V0z" fill="#BE0027"/>
    <path d="M8.1 18.516c.126-.127.286-.24.487-.309.012-.637.004-1.332-.035-1.992-.053-.079-.144-.145-.304-.145-.4 0-1.278-.342-1.278-.834 0 0 .655.296.837.148.078-.063-.125-.258-.37-.495-.331-.318-.739-.71-.64-.952 0 0 .642.568.78.568.062 0 .02-.184-.023-.37-.051-.22-.103-.442.023-.356.23.158.871 1.246.871 1.605 0 .196.052.504.099.744v-.007a11.967 11.967 0 00-.116-1.105c-.289-1.8-.299-3.645.102-4.626-.2-.124-.346-.282-.346-.462 0 0 .655.266.838.133.078-.057-.125-.233-.37-.445-.331-.286-.739-.64-.64-.857 0 0 .642.511.78.511.062 0 .02-.165-.024-.332-.05-.198-.102-.398.023-.321.231.142.872 1.12.872 1.444v.008c.249-.308.538-.596.69-.668.164-.077.097.123.03.321-.055.167-.11.333-.03.333.179 0 1.014-.512 1.014-.512.129.218-.401.571-.831.857-.32.213-.584.389-.483.445.238.133 1.09-.133 1.09-.133 0 .443-1.142.75-1.662.75-.193 0-.31.051-.38.116a8.967 8.967 0 00-.05 1.026c.26-.335.585-.663.75-.741.162-.077.096.122.03.32-.057.167-.112.333-.03.333.178 0 1.013-.511 1.013-.511.128.218-.402.57-.832.857-.319.212-.583.388-.482.445.238.133 1.09-.133 1.09-.133 0 .393-.903.68-1.468.738.031.324.073.651.125.976.056.346.096.743.124 1.18.013.189.022.38.03.57.024-.158.043-.316.043-.433 0-.36.64-1.448.872-1.605.125-.086.074.136.023.356-.043.186-.086.37-.023.37.137 0 .779-.569.779-.569.099.242-.309.635-.64.953-.245.236-.448.432-.37.495.183.148.838-.148.838-.148 0 .492-.879.833-1.278.833a.374.374 0 00-.235.07c.01.422.011.843.004 1.242.218.071.388.196.52.333.256-.018.509-.057.758-.117.48-.264 1.543-1.115 1.812-1.45.204-.253.282-.752.355-1.223.042-.27.083-.53.145-.732.17-.551.473.67.473.86 0 .19.248-.705.248-1.333 0-.315-.062-.517-.125-.718a2.172 2.172 0 01-.123-.713c0-.367.214-.302.413-.111a2.61 2.61 0 01-.165-.877c0-.408-.051-.53-.073-.56.02.008.073.014.185-.047.193-.105.282.023.357.13.066.095.12.173.222.066.112-.118-.13-.25-.488-.449-.344-.19-.796-.439-1.147-.791-.717-.719.223-.966.383-.715.16.25 1.117.532.561-.302-.338-.507-.754-.5-1.133-.495-.244.004-.473.007-.655-.128-.313-.232.124-.473.362-.604.114-.063.182-.1.102-.1-.101 0-.231-.036-.384-.079-.219-.06-.485-.135-.784-.135-.508 0-1.512-.454-1.165-.454.124 0 .307-.044.508-.092.221-.053.464-.111.673-.122a11.6 11.6 0 00-2.093-.713L9.293 6a12.29 12.29 0 012.096.705 11.03 11.03 0 01-.319-.51c-.332-.58.706.32 1.116.916l.002.002c.668.388 1.22.84 1.652 1.357V7.296c.388.133.609 1.387.725 2.33.085.19.158.387.219.59.15-.404.436-.831.692-.461.305.44-.234 2.941-.432 3.805a9.02 9.02 0 01-.03.27c.473-.301.718-.996.844-1.353.108-.307.127-.362.127.306 0 .863-.672 1.718-1.222 2.274-.08.273-.173.539-.28.798.379-.12.704-.33.956-.493.44-.286.657-.426.546.322-.12.814-1.303 1.115-2.046 1.224-.054.087-.11.172-.168.257l-.031.038a8.265 8.265 0 01-.349.334c.075-.032.147-.065.218-.097.29-.132.554-.252.888-.252.202 0-.074.106-.464.255-.462.176-1.084.414-1.266.61-.076.083-.126.15-.167.204-.119.158-.155.206-.529.216a5.21 5.21 0 01-1.801.579c.039.094.055.155.055.155H7.693s.02-.075.07-.187a5.243 5.243 0 01-1.586-.545h-.042c-.57 0-.597-.035-.735-.218a2.102 2.102 0 00-.167-.203c-.182-.197-.804-.435-1.266-.611-.39-.15-.666-.255-.464-.255.334 0 .598.12.888.252a6.496 6.496 0 00.647.258 8.032 8.032 0 01-.533-.495l-.032-.038c-.05-.074-.1-.149-.147-.225-.688-.075-2.161-.342-2.297-1.257-.111-.747.105-.607.546-.321.266.172.613.396 1.02.512.074.02.14.038.197.052a7.384 7.384 0 01-.213-.558c-.561-.503-1.55-1.538-1.55-2.585 0-.668.02-.613.128-.306.129.367.384 1.09.883 1.377 0 0-.872-3.564-.502-4.099.37-.535.8.593.8.91 0 .056.005-.004.018-.141.058-.651.274-3.041.818-3.228v1.292c0 .06.027.084.074.078a5.74 5.74 0 011.37-1.278c.082-.101.154-.195.21-.277.41-.596 1.448-1.497 1.116-.917-.1.174-.22.358-.33.527a34.09 34.09 0 00-.091.141c.7-.348 1.51-.636 2.428-.862l.134.53c-.804.199-1.515.443-2.135.734.16.024.328.064.485.102.201.048.384.092.508.092.347 0-.657.454-1.165.454-.3 0-.565.074-.784.135a1.615 1.615 0 01-.384.079c-.08 0-.012.037.102.1.238.13.676.372.362.604-.182.135-.411.132-.655.128-.27-.004-.56-.008-.827.174-.18.258-.33.53-.45.818.122.16.596-.025.705-.195.16-.25 1.1-.004.383.715-.351.352-.803.602-1.147.791a7.217 7.217 0 00-.295.169 7.458 7.458 0 00-.03.293.676.676 0 00.059-.078c.075-.108.164-.236.357-.131.112.06.165.056.185.046-.022.03-.073.153-.073.56 0 .32-.074.628-.165.878.199-.191.414-.256.414.111 0 .311-.062.512-.124.713a2.188 2.188 0 00-.125.718c0 .628.249 1.524.249 1.334 0-.19.301-1.412.472-.86.062.2.103.46.145.73.073.472.151.971.355 1.224.234.29 1.064.97 1.594 1.317.326.115.66.192 1 .23zm-3.73-6.964c-.001-.001-.005 0-.01.008.007-.003.01-.007.01-.008zm9.285.008c-.006-.007-.01-.01-.01-.008 0 .001.002.005.01.008zm.179 4.393a6.49 6.49 0 00.065-.141c-.055.054-.097.112-.065.141zM9.217 10.95a3.23 3.23 0 01-.09.45 3.54 3.54 0 01.09-.45z" fill="#F3E294"/>
  </g>
</svg>
